assets/svg/icon_login_restorekey.svg

<svg width="36" height="36" viewBox="0 0 36 36" fill="none" xmlns="http://www.w3.org/2000/svg">
<path d="M9.35214 18.5043C9.35214 17.9781 8.92558 17.5516 8.3994 17.5516H5.73692C5.21075 17.5516 4.78418 17.9781 4.78418 18.5043C4.78418 19.0305 5.21075 19.457 5.73692 19.457H8.3994C8.92558 19.457 9.35214 19.0305 9.35214 18.5043Z" fill="white"/>
<path fill-rule="evenodd" clip-rule="evenodd" d="M21.2075 4.5C24.3979 4.5 26.9843 7.08639 26.9843 10.2768C26.9843 13.4673 24.3979 16.0537 21.2075 16.0537C18.017 16.0537 15.4306 13.4673 15.4306 10.2768C15.4306 7.08639 18.017 4.5 21.2075 4.5Z" fill="white"/>
<path fill-rule="evenodd" clip-rule="evenodd" d="M21.2059 17.8835C24.0196 17.8835 26.6119 18.5231 28.5328 19.6036C30.4251 20.6681 31.8474 22.2814 31.8474 24.2685L31.8475 24.3925C31.8489 25.8055 31.8506 27.5789 30.2951 28.8456C29.5295 29.469 28.4586 29.9123 27.0117 30.2053C25.5607 30.4988 23.6696 30.6534 21.2059 30.6534C18.7422 30.6534 16.851 30.4988 15.4001 30.2053C13.9531 29.9123 12.8821 29.469 12.1167 28.8456C10.5612 27.5789 10.5629 25.8055 10.5642 24.3925L10.5643 24.2685C10.5643 22.2814 11.9865 20.6681 13.8789 19.6036C15.7999 18.5231 18.3922 17.8835 21.2059 17.8835Z" fill="white"/>
<path d="M7.54759 25.9896C5.54639 25.9803 3.73817 25.4932 2.42238 24.3213C1.08107 23.1268 0.398438 21.353 0.398438 19.0774V16.6623C0.398438 14.3867 1.08107 12.6129 2.42238 11.4185C3.75091 10.2352 5.58145 9.75 7.60577 9.75H12.3476V11.5532H7.60577C5.86974 11.5532 4.56666 11.9696 3.70165 12.7399C2.84943 13.4989 2.27861 14.7304 2.27861 16.6623V19.0774C2.27861 21.0092 2.84943 22.2408 3.70165 22.9999C4.55697 23.7614 5.8406 24.1771 7.54759 24.1863V25.9896Z" fill="white"/>
<path d="M6.64525 25.0875C6.64525 25.5846 7.04819 25.9875 7.54525 25.9875C8.0423 25.9875 8.44525 25.5846 8.44525 25.0875C8.44525 24.5904 8.0423 24.1875 7.54525 24.1875C7.04819 24.1875 6.64525 24.5904 6.64525 25.0875Z" fill="white"/>
<path d="M11.4997 10.65C11.4997 11.1471 11.9027 11.55 12.3997 11.55C12.8968 11.55 13.2997 11.1471 13.2997 10.65C13.2997 10.1529 12.8968 9.75 12.3997 9.75C11.9027 9.75 11.4997 10.1529 11.4997 10.65Z" fill="white"/>
<path d="M12.7716 10.4998C13.1608 10.1457 13.1274 10.1419 12.7733 9.75275L9.97122 6.9243C9.61712 6.53511 9.01453 6.50666 8.62535 6.86075C8.23616 7.21485 8.20771 7.81744 8.5618 8.20662L10.9695 10.5004C11.3236 10.8896 12.3824 10.8539 12.7716 10.4998Z" fill="white"/>
<path d="M12.9941 10.536C13.3833 10.8901 13.1415 10.5007 12.992 11.341L10.1937 14.1114C9.83964 14.5006 9.23705 14.5291 8.84786 14.175C8.45868 13.8209 8.43022 13.2183 8.78432 12.8291L11.192 10.5354C11.5461 10.1462 12.6049 10.1819 12.9941 10.536Z" fill="white"/>
</svg>

<svg xmlns="http://www.w3.org/2000/svg" width="36" height="36" fill="none"><path fill="#fff" d="M9.352 18.504a.953.953 0 0 0-.953-.952H5.737a.953.953 0 1 0 0 1.905h2.662a.953.953 0 0 0 .953-.953"/><path fill="#fff" fill-rule="evenodd" d="M21.208 4.5a5.777 5.777 0 1 1 0 11.554 5.777 5.777 0 0 1 0-11.554M21.206 17.884c2.814 0 5.406.64 7.327 1.72 1.892 1.064 3.314 2.677 3.314 4.665v.123c.002 1.413.004 3.187-1.552 4.454-.766.623-1.836 1.066-3.283 1.36-1.451.293-3.342.447-5.806.447s-4.355-.154-5.806-.448c-1.447-.293-2.518-.736-3.283-1.36-1.556-1.266-1.554-3.04-1.553-4.453v-.123c0-1.988 1.422-3.6 3.315-4.665 1.92-1.08 4.513-1.72 7.327-1.72" clip-rule="evenodd"/><path fill="#fff" d="M7.548 25.99c-2.002-.01-3.81-.497-5.126-1.669-1.34-1.194-2.024-2.968-2.024-5.244v-2.415c0-2.275.683-4.05 2.024-5.243 1.329-1.184 3.16-1.669 5.184-1.669h4.742v1.803H7.606c-1.736 0-3.04.417-3.904 1.187-.853.759-1.423 1.99-1.423 3.922v2.415c0 1.932.57 3.164 1.423 3.923.855.761 2.139 1.177 3.846 1.186z"/><path fill="#fff" d="M6.645 25.088a.9.9 0 1 0 1.8 0 .9.9 0 0 0-1.8 0M11.5 10.65a.9.9 0 1 0 1.8 0 .9.9 0 0 0-1.8 0"/><path fill="#fff" d="M12.772 10.5c.389-.354.355-.358.001-.747L9.971 6.924a.953.953 0 0 0-1.41 1.283L10.97 10.5c.354.39 1.412.354 1.802 0"/><path fill="#fff" d="M12.994 10.536c.39.354.148-.035-.002.805l-2.798 2.77a.953.953 0 1 1-1.41-1.282l2.408-2.294c.354-.389 1.413-.353 1.802.001"/></svg>
